X: 51
T: Lady Campbell of Ardkinglass's Jigg
R: jig
Q: "Slow"
B: William Shepherd "1st Collection" 1793 p.5 #1
F: http://imslp.org/wiki/File:PMLP73094-Shepherd_Collections_HMT.pdf
C: William Shepherd (17??-1812)
Z: 2012 John Chambers <jc:trillian.mit.edu>
M: 6/8
L: 1/8
K: Cm
D |\
(E/F/G).E (D/E/F).D | CEG Tc2d | edc BAG | FGE FDB, |\
(E/F/G).E (D/E/F).D | CEG Tc2d |
edc Gc=B |1 cGE C2 :|2 c3 C2 |: G |\
Tc2d {cd}edc | Gc=B Tc2d | e2f gfe | dfe dcB |
[1 Tc2d {cd}edc | Gc=B Tc2D | (E/F/G).E (D/E/F).D | ECC TC2 :|\
[2 geg fdf | e=Bc _BGE | FGA GFD | ECC TC2 |]
